icons/fill-new-container-office-files.svg

<svg xmlns="http://www.w3.org/2000/svg" width="32px" height="32px" viewBox="0 0 32 32" version="1.1">
    <title>fill-new-container-office-files</title>
    <g id="fill-new-container-office-files" stroke-width="1" fill-rule="evenodd">
        <path d="M3,11 L29,11 C29.5522847,11 30,11.4477153 30,12 L30,28 C30,28.5522847 29.5522847,29 29,29 L3,29 C2.44771525,29 2,28.5522847 2,28 L2,12 C2,11.4477153 2.44771525,11 3,11 Z M26,7 C26.5522847,7 27,7.44771525 27,8 C27,8.55228475 26.5522847,9 26,9 L6,9 C5.44771525,9 5,8.55228475 5,8 C5,7.44771525 5.44771525,7 6,7 L26,7 Z M23,3 C23.5522847,3 24,3.44771525 24,4 C24,4.55228475 23.5522847,5 23,5 L9,5 C8.44771525,5 8,4.55228475 8,4 C8,3.44771525 8.44771525,3 9,3 L23,3 Z" id="&#24418;&#29366;" />
    </g>
</svg>

<svg xmlns="http://www.w3.org/2000/svg" viewBox="0 0 32 32"><path fill="currentColor" d="M3 11h26a1 1 0 0 1 1 1v16a1 1 0 0 1-1 1H3a1 1 0 0 1-1-1V12a1 1 0 0 1 1-1m23-4a1 1 0 0 1 0 2H6a1 1 0 1 1 0-2zm-3-4a1 1 0 0 1 0 2H9a1 1 0 1 1 0-2z"/></svg>
